X:1
T:Title
%%score 1 ( 2 3 )
L:1/8
Q:1/4=98
M:6/8
K:G
V:1 treble nm="Grand Piano, Soprano"
V:2 bass nm="Choir Pad, On Easter Day"
V:3 bass 
V:1
 [B,D] [DB]2 [Ec] [CE]2 | [CF] [B,DG]2 [B,D] [B,D]2- | [B,D] [CF]2 [CA] [CE]2 | %3
w: By~G.~A.~Schwedes * * *|||
 [DF] [B,DG]2 [DFA] [DGB]2- | [DGB] [DB]2 [Ec] [CE]2 | [CF] [B,DG]2 [B,D] [CE]2 | %6
w: |||
 [Ge] [GBd]2 [EGc] [DGB]2 | [CFA] [B,DG]2- [B,DG]2- [B,DG]/ z/ | z [GBd]2 [GBd] [GB]2 | %9
w: |||
 [Bd] [Fc]2 [Fc] [FA]2- | [FA] [B,DG]2 [FA] [GB]2 | [Ac] [Bd]2 [ce] [DFA]2- | %12
w: |||
 [DFA] [Ge]2 [Ec] [CEA]2 | [DB] [DG]2- [DG] [CF]2 | [CF] [EG]2 [FA] [GB]2 | %15
w: |||
 [G^c] [DFAd]2- [DFAd] [DFA=c]2- | [DFAc] [DB]2 [Ec] [CE]2 | [CF] [B,DG]2 [B,D] [B,D]2- | %18
w: |||
 [B,D] [CF]2 [CA] [CE]2 | [DF] [B,DG]2 [DFA] [DGB]2- | [DGB] [DB]2 [Ec] [CE]2 | %21
w: |||
 [CF] [B,DG]2 [B,D] [CE]2 | [Ge] [GBd]2 [EGc] [DGB]2 | [CFA] [B,DG]2- [B,DG]2- [B,DG]/ z/ |] %24
w: |||
V:2
 z G,2- G,3- | G,3 z3 | z6 | z6 | z G,2- G,3- | G, G,2- G,2- G,/ z/ | C, [D,B,]2- [D,B,]3 | %7
 [D,,D,] [G,,D,G,]2- [G,,D,G,]2- [G,,D,G,]/ z/ | z G,2- G,3- | G,3 z3 | z6 | z6 | z6 | z6 | %14
 z ^C,2 z3 | z6 | z G,2- G,3- | G,3 z3 | z6 | z6 | z G,2- G,3- | G, G,2- G,2- G,/ z/ | %22
 C, [D,B,]2- [D,B,]3 | [D,,D,] [G,,D,G,]2- [G,,D,G,]2- [G,,D,G,]/ z/ |] %24
V:3
 z G,,2- G,, C,2- | C, [G,,G,]2- [G,,G,]3- | [G,,G,] [D,A,]2- [D,A,] [D,G,C]2 | %3
 [D,A,] [G,,G,]2- [G,,G,]3- | [G,,G,] G,,2- G,, C,2- | C, G,,2- G,, C,2 | x6 | x6 | z B,2- B, D2- | %9
 D [D,A,D]2- [D,A,D]3- | [D,A,D] [G,,G,]2- [G,,G,]3- | [G,,G,] [G,,G,]2- [G,,G,] [D,A,]2- | %12
 [D,A,] [C,G,]2- [C,G,] [C,A,]2- | [C,A,] [D,B,]2- [D,B,] [D,A,]2 | %14
 [D,A,] A,,2- [A,,-D,] [A,,-E,]2 | [A,,E,] [D,F,A,]2- [D,F,A,] [D,,D,]2- | [D,,D,] G,,2- G,, C,2- | %17
 C, [G,,G,]2- [G,,G,]3- | [G,,G,] [D,A,]2- [D,A,] [D,G,C]2 | [D,A,] [G,,G,]2- [G,,G,]3- | %20
 [G,,G,] G,,2- G,, C,2- | C, G,,2- G,, C,2 | x6 | x6 |] %24

